src/lib/packages/icons/src/assets/line/chart-trend-up.svg

<svg width="24" height="24" viewBox="0 0 24 24" fill="none" xmlns="http://www.w3.org/2000/svg">
<path d="M21.75 20C21.75 20.414 21.414 20.75 21 20.75H4.5C3.091 20.75 2.25 19.909 2.25 18.5V4C2.25 3.586 2.586 3.25 3 3.25C3.414 3.25 3.75 3.586 3.75 4V18.5C3.75 19.089 3.911 19.25 4.5 19.25H21C21.414 19.25 21.75 19.586 21.75 20ZM12.25 12V16C12.25 16.414 12.586 16.75 13 16.75C13.414 16.75 13.75 16.414 13.75 16V12C13.75 11.586 13.414 11.25 13 11.25C12.586 11.25 12.25 11.586 12.25 12ZM18 9.25C17.586 9.25 17.25 9.586 17.25 10V16C17.25 16.414 17.586 16.75 18 16.75C18.414 16.75 18.75 16.414 18.75 16V10C18.75 9.586 18.414 9.25 18 9.25ZM8 16.75C8.414 16.75 8.75 16.414 8.75 16V14C8.75 13.586 8.414 13.25 8 13.25C7.586 13.25 7.25 13.586 7.25 14V16C7.25 16.414 7.586 16.75 8 16.75ZM8 8.90002C8.192 8.90002 8.384 8.82705 8.53 8.68005L10.205 7.005C10.393 6.817 10.731 6.817 10.92 7.005L12.07 8.15503C12.852 8.93803 14.125 8.93703 14.905 8.15503L17.25 5.81006V7C17.25 7.414 17.586 7.75 18 7.75C18.414 7.75 18.75 7.414 18.75 7V4C18.75 3.902 18.73 3.80501 18.692 3.71301C18.616 3.53001 18.47 3.38401 18.287 3.30701C18.195 3.26901 18.098 3.24902 18 3.24902H15C14.586 3.24902 14.25 3.58502 14.25 3.99902C14.25 4.41302 14.586 4.74902 15 4.74902H16.189L13.844 7.09399C13.65 7.28799 13.323 7.28699 13.13 7.09399L11.98 5.94397C11.198 5.16197 9.92601 5.16197 9.14401 5.94397L7.46899 7.61902C7.17599 7.91202 7.17599 8.38705 7.46899 8.68005C7.61599 8.82705 7.808 8.90002 8 8.90002Z" fill="currentColor"/>
</svg>

<svg xmlns="http://www.w3.org/2000/svg" width="24" height="24" fill="none"><path fill="currentColor" d="M21.75 20a.75.75 0 0 1-.75.75H4.5c-1.409 0-2.25-.841-2.25-2.25V4a.75.75 0 0 1 1.5 0v14.5c0 .589.161.75.75.75H21a.75.75 0 0 1 .75.75Zm-9.5-8v4a.75.75 0 0 0 1.5 0v-4a.75.75 0 0 0-1.5 0ZM18 9.25a.75.75 0 0 0-.75.75v6a.75.75 0 0 0 1.5 0v-6a.75.75 0 0 0-.75-.75Zm-10 7.5a.75.75 0 0 0 .75-.75v-2a.75.75 0 0 0-1.5 0v2c0 .414.336.75.75.75ZM8 8.9a.744.744 0 0 0 .53-.22l1.675-1.675a.524.524 0 0 1 .715 0l1.15 1.15a2.005 2.005 0 0 0 2.835 0L17.25 5.81V7a.75.75 0 0 0 1.5 0V4a.75.75 0 0 0-.463-.693.75.75 0 0 0-.287-.058h-3a.75.75 0 0 0 0 1.5h1.189l-2.345 2.345a.512.512 0 0 1-.714 0l-1.15-1.15a2.007 2.007 0 0 0-2.836 0L7.469 7.619A.75.75 0 0 0 8 8.9Z"/></svg>
